src/img/glasses.svg

<svg width="48" height="48" viewBox="0 0 48 48" fill="none" xmlns="http://www.w3.org/2000/svg">
<path fill-rule="evenodd" clip-rule="evenodd" d="M2 26C0.89543 26 0 25.1046 0 24C0 22.8954 0.89543 22 2 22H2.83209C4.3752 18.4682 7.89936 16 12 16C15.6488 16 18.8412 17.9542 20.5875 20.8732C21.5691 20.3161 22.7529 20 24 20C25.2471 20 26.4309 20.3161 27.4125 20.8732C29.1588 17.9542 32.3512 16 36 16C40.1006 16 43.6248 18.4682 45.1679 22H46C47.1046 22 48 22.8954 48 24C48 25.1046 47.1046 26 46 26C46 31.5228 41.5228 36 36 36C30.4772 36 26 31.5228 26 26C26 25.6625 26.0167 25.3289 26.0494 25H26C26 24.5931 25.2091 24 24 24C22.7909 24 22 24.5931 22 25H21.9506C21.9833 25.3289 22 25.6625 22 26C22 31.5228 17.5228 36 12 36C6.47715 36 2 31.5228 2 26ZM12 32C15.3137 32 18 29.3137 18 26C18 22.6863 15.3137 20 12 20C8.68629 20 6 22.6863 6 26C6 29.3137 8.68629 32 12 32ZM42 26C42 29.3137 39.3137 32 36 32C32.6863 32 30 29.3137 30 26C30 22.6863 32.6863 20 36 20C39.3137 20 42 22.6863 42 26Z" fill="#13A9B2"/>
</svg>

<svg xmlns="http://www.w3.org/2000/svg" width="48" height="48" fill="none"><path fill="#13A9B2" fill-rule="evenodd" d="M2 26a2 2 0 1 1 0-4h.832C4.375 18.468 7.9 16 12 16a9.995 9.995 0 0 1 8.587 4.873C21.57 20.316 22.753 20 24 20c1.247 0 2.43.316 3.413.873A9.995 9.995 0 0 1 36 16c4.1 0 7.625 2.468 9.168 6H46a2 2 0 1 1 0 4c0 5.523-4.477 10-10 10s-10-4.477-10-10c0-.337.017-.671.05-1H26c0-.407-.79-1-2-1s-2 .593-2 1h-.05c.033.329.05.663.05 1 0 5.523-4.477 10-10 10S2 31.523 2 26Zm10 6a6 6 0 1 0 0-12 6 6 0 0 0 0 12Zm30-6a6 6 0 1 1-12 0 6 6 0 0 1 12 0Z" clip-rule="evenodd"/></svg>
